**harm	**harte	**silbe	**rhyme	**timestamp	**phrase	**leadinstrument	**kern
*M12/8	*M12/8	*	*	*	*	*	*
*	*	*	*	*	*	*	*
*	*	*	*	*	*	*	*
*F:	*F:	*	*	*	*	*	*F:
*	*	*	*	*	*	*	*
*	*	*	*	*	*	*	*
1r;	N	.	.	0	.	r	1r;
=1	=1	=1	=1	=1	=1	=1	=1
*>Letter>A	*>Letter>A	*>Letter>A	*>Letter>A	*>Letter>A	*>Letter>A	*>Letter>A	*>Letter>A
*>Label>Intro	*>Label>Intro	*>Label>Intro	*>Label>Intro	*>Label>Intro	*>Label>Intro	*>Label>Intro	*>Label>Intro
2.V	C:maj	Un-	.	0.267	newline	r	2.C 2.e 2.g
.	.	-for-	.	.	.	.	.
.	.	-get-	.	.	.	.	.
.	.	-a-	.	.	.	.	.
.	.	ble	.	.	.	.	.
2.iii	A:min	_	.	2.202	.	r	2.A 2.cc 2.ee
.	.	Ooh	.	.	.	.	.
=2	=2	=2	=2	=2	=2	=2	=2
2.vi7	D:min7	_	.	4.136	.	r	2.D 2.f 2.a 2.cc
.	.	.	.	.	.	.	.
.	.	That's	.	.	.	.	.
2.II7	G:7	what	.	6.071	.	r	2.G 2.b 2.dd 2.ff
.	.	you	.	.	.	.	.
=3	=3	=3	=3	=3	=3	=3	=3
2.V	C:maj	are	.	8.005	.	r	2.C 2.e 2.g
2.III7	A:7	.	.	9.94	.	r	2.A 2.cc# 2.ee 2.gg
.	.	.	.	.	.	.	.
=4	=4	=4	=4	=4	=4	=4	=4
2.vi7	D:min7	.	.	11.874	.	r	1.D 1.f 1.a 1.cc
2.II7	G:9	.	.	13.809	.	r	2G 2b 2dd 2ff
=5	=5	=5	=5	=5	=5	=5	=5
*>Letter>B	*>Letter>B	*>Letter>B	*>Letter>B	*>Letter>B	*>Letter>B	*>Letter>B	*>Letter>B
*>Label>Verse	*>Label>Verse	*>Label>Verse	*>Label>Verse	*>Label>Verse	*>Label>Verse	*>Label>Verse	*>Label>Verse
8%9VM7	C:maj7	.	.	15.743	newline	voice	8%9C 8%9e 8%9g 8%9b-
.	.	un	.	.	.	.	.
.	.	_	.	.	.	.	.
.	.	-for-	.	.	.	.	.
.	.	-get-	.	.	.	.	.
.	.	-a-	.	.	.	.	.
.	C:maj7	-ble	.	.	.	.	.
4.#IV+	B:aug	_	.	18.634	.	voice	4.B 4.dd# 4.ff##
.	.	.	.	.	.	.	.
=6	=6	=6	=6	=6	=6	=6	=6
1.V	C:maj	.	.	19.598	.	voice	1.C 1.e 1.g
.	.	.	.	.	.	.	.
.	.	Mmmh	.	.	.	.	.
.	.	_	.	.	.	.	.
.	.	_	.	.	.	.	.
.	.	_	.	.	.	.	.
.	.	that's	.	.	.	.	.
=7	=7	=7	=7	=7	=7	=7	=7
1.-viio	E-:dim	.	.	23.452	.	voice	1.E- 1.g- 1.b--
.	.	what	.	.	.	.	.
.	.	you	.	.	.	.	.
.	.	are	A	.	.	.	.
.	.	_	.	.	.	.	.
.	.	_	.	.	.	.	.
.	.	.	.	.	.	.	.
.	.	.	.	.	.	.	.
=8	=8	=8	=8	=8	=8	=8	=8
1.-viio	E-:dim	.	.	27.307	.	voice	1.E- 1.g- 1.b--
=9	=9	=9	=9	=9	=9	=9	=9
1.I7	F:maj7	.	.	31.161	newline	voice	1.F 1.a 1.cc 1.ee
.	.	un	.	.	.	.	.
.	.	_	.	.	.	.	.
.	.	-for-	.	.	.	.	.
.	.	-get-	.	.	.	.	.
.	.	-a-	.	.	.	.	.
.	.	-ble	.	.	.	.	.
.	.	_	.	.	.	.	.
.	.	_	.	.	.	.	.
=10	=10	=10	=10	=10	=10	=10	=10
1.I7	F:maj7	.	.	34.987	.	voice	1.F 1.a 1.cc 1.ee
.	.	Though	.	.	.	.	.
.	.	near	.	.	.	.	.
.	.	or	.	.	.	.	.
.	.	far	A	.	.	.	.
=11	=11	=11	=11	=11	=11	=11	=11
2.VI7	D:7	_	.	38.812	.	voice	1.D 1.f# 1.a 1.cc
2.vie	D:sus4(b7)/2	.	.	40.725	.	voice	2D 2f 2a
=12	=12	=12	=12	=12	=12	=12	=12
2.vio7b	D:hdim7/b3	.	.	42.638	.	voice	1.d 1.F 1.a- 1.cc
2.VI7b	D:7/3	.	.	44.55	.	voice	2d 2F# 2a 2cc
=13	=13	=13	=13	=13	=13	=13	=13
1.IV	B-:maj	.	.	46.463	newline	voice	1.B- 1.dd 1.ff
.	.	like	.	.	.	.	.
.	.	.	.	.	.	.	.
.	.	a	.	.	.	.	.
.	.	song	.	.	.	.	.
.	.	_	.	.	.	.	.
.	.	of	.	.	.	.	.
.	.	love	.	.	.	.	.
=14	=14	=14	=14	=14	=14	=14	=14
1.iv	B-:min	_	.	50.272	.	voice	1.B- 1.dd- 1.ff
.	.	.	.	.	.	.	.
.	.	.	.	.	.	.	.
.	.	that	.	.	.	.	.
.	.	clings	B	.	.	.	.
.	.	_	.	.	.	.	.
.	.	_	.	.	.	.	.
.	.	to	.	.	.	.	.
.	.	me	.	.	.	.	.
.	.	_	.	.	.	.	.
=15	=15	=15	=15	=15	=15	=15	=15
2.I	F:maj	.	.	54.081	.	voice	2.F 2.a 2.cc
.	.	Ooh	.	.	.	.	.
.	.	_	.	.	.	.	.
2.v	C:min6	how	.	55.985	.	voice	2.C 2.e- 2.g
.	.	the	.	.	.	.	.
.	.	thought	.	.	.	.	.
.	.	.	.	.	.	.	.
.	.	of	.	.	.	.	.
.	.	you	.	.	.	.	.
=16	=16	=16	=16	=16	=16	=16	=16
1.VI7	D:7	_	.	57.889	.	voice	1.D 1.f# 1.a 1.cc
.	.	does	.	.	.	.	.
.	.	.	.	.	.	.	.
.	.	things	B	.	.	.	.
.	.	_	.	.	.	.	.
.	.	_	.	.	.	.	.
.	.	to	.	.	.	.	.
.	.	me	.	.	.	.	.
.	.	_	.	.	.	.	.
=17	=17	=17	=17	=17	=17	=17	=17
1.II7	G:9	.	.	61.698	newline	voice	1.G 1.b 1.dd 1.ff
.	.	.	.	.	.	.	.
.	.	nev-	.	.	.	.	.
.	.	-er	.	.	.	.	.
.	.	_	.	.	.	.	.
.	.	be-	.	.	.	.	.
.	.	-fore	C	.	.	.	.
=18	=18	=18	=18	=18	=18	=18	=18
8%9II7	G:9	_	.	65.552	.	voice	8%9G 8%9b 8%9dd 8%9ff
.	.	.	.	.	.	.	.
.	.	.	.	.	.	.	.
.	G:9	.	.	.	.	.	.
4.#I7	F#:7	.	.	68.442	.	voice	4.F# 4.a# 4.cc# 4.ee
.	.	has	.	.	.	.	.
=19	=19	=19	=19	=19	=19	=19	=19
1.II7	G:7	_	.	69.406	.	voice	1.G 1.b 1.dd 1.ff
.	.	some-	.	.	.	.	.
.	.	-one	.	.	.	.	.
.	.	_	.	.	.	.	.
.	.	.	.	.	.	.	.
.	.	.	.	.	.	.	.
.	.	been	.	.	.	.	.
.	.	more	C	.	.	.	.
=20	=20	=20	=20	=20	=20	=20	=20
1.II7	G:7	_	.	73.26	.	voice	1.G 1.b 1.dd 1.ff
.	.	_	.	.	.	.	.
.	.	.	.	.	.	.	.
.	.	.	.	.	.	.	.
.	.	mmh	.	.	.	.	.
.	.	_	.	.	.	.	.
.	.	_	.	.	.	.	.
.	.	_	.	.	.	.	.
.	.	_	.	.	.	.	.
.	.	_	.	.	.	.	.
.	.	_	.	.	.	.	.
=21	=21	=21	=21	=21	=21	=21	=21
*>Letter>B	*>Letter>B	*>Letter>B	*>Letter>B	*>Letter>B	*>Letter>B	*>Letter>B	*>Letter>B
*>Label>Verse	*>Label>Verse	*>Label>Verse	*>Label>Verse	*>Label>Verse	*>Label>Verse	*>Label>Verse	*>Label>Verse
8%9VM7	C:maj7	_	.	77.113	newline	voice	8%9C 8%9e 8%9g 8%9b-
.	.	_	.	.	.	.	.
.	.	.	.	.	.	.	.
.	.	Un-	.	.	.	.	.
.	.	-for-	.	.	.	.	.
.	.	-get-	(D	.	.	.	.
.	C:maj7	-a-	.	.	.	.	.
.	.	-ble	d)	.	.	.	.
.	.	_	.	.	.	.	.
4.#IV+	B:aug	_	.	80.009	.	voice	4.B 4.dd# 4.ff##
=22	=22	=22	=22	=22	=22	=22	=22
1.V	C:maj	.	.	80.974	.	voice	1.C 1.e 1.g
.	.	.	.	.	.	.	.
.	.	.	.	.	.	.	.
.	.	Ooh	.	.	.	.	.
.	.	_	.	.	.	.	.
.	.	in	.	.	.	.	.
.	.	_	.	.	.	.	.
.	.	e-	.	.	.	.	.
.	.	-very	.	.	.	.	.
=23	=23	=23	=23	=23	=23	=23	=23
1.-viio	E-:dim	way	.	84.834	.	voice	1.E- 1.g- 1.b--
.	.	_	.	.	.	.	.
.	.	.	.	.	.	.	.
=24	=24	=24	=24	=24	=24	=24	=24
1.-viio	E-:dim	.	.	88.694	.	voice	1.E- 1.g- 1.b--
=25	=25	=25	=25	=25	=25	=25	=25
1.I7	F:maj7	.	.	92.555	newline	voice	1.F 1.a 1.cc 1.ee
.	.	and	.	.	.	.	.
.	.	_	.	.	.	.	.
.	.	for	.	.	.	.	.
.	.	e-	(D	.	.	.	.
.	.	-ver-	d	.	.	.	.
.	.	-more	C)	.	.	.	.
.	.	_	.	.	.	.	.
.	.	_	.	.	.	.	.
=26	=26	=26	=26	=26	=26	=26	=26
1.I7	F:maj7	.	.	96.386	.	voice	1.F 1.a 1.cc 1.ee
.	.	.	.	.	.	.	.
.	.	I	.	.	.	.	.
.	.	in-	.	.	.	.	.
.	.	-tend	.	.	.	.	.
=27	=27	=27	=27	=27	=27	=27	=27
2.VI7	D:7	_	.	100.217	.	voice	2.D 2.f# 2.a 2.cc
.	.	to	.	.	.	.	.
.	.	stay	.	.	.	.	.
.	.	_	.	.	.	.	.
2.vie	D:sus4(b7)/2	_	.	102.133	.	voice	2.D 2.f 2.a
.	.	.	.	.	.	.	.
.	.	.	.	.	.	.	.
=28	=28	=28	=28	=28	=28	=28	=28
2.vio7b	D:hdim7/b3	.	.	104.049	.	voice	1.d 1.F 1.a- 1.cc
2.VI7b	D:7/3	.	.	105.964	.	voice	2d 2F# 2a 2cc
=29	=29	=29	=29	=29	=29	=29	=29
1.IV	B-:maj	.	.	107.88	newline	voice	1.B- 1.dd 1.ff
.	.	That's	.	.	.	.	.
.	.	.	.	.	.	.	.
.	.	why	.	.	.	.	.
.	.	dar	.	.	.	.	.
.	.	_	.	.	.	.	.
.	.	ling	.	.	.	.	.
.	.	.	.	.	.	.	.
=30	=30	=30	=30	=30	=30	=30	=30
1.iv	B-:min	.	.	111.726	.	voice	1.B- 1.dd- 1.ff
.	.	.	.	.	.	.	.
.	.	it's	.	.	.	.	.
.	.	.	.	.	.	.	.
.	.	in	.	.	.	.	.
.	.	_	.	.	.	.	.
.	.	.	.	.	.	.	.
.	.	cre-	(D	.	.	.	.
.	.	-di-	.	.	.	.	.
.	.	-ble	d)	.	.	.	.
.	.	_	.	.	.	.	.
=31	=31	=31	=31	=31	=31	=31	=31
2.I	F:maj	.	.	115.573	.	voice	2.F 2.a 2.cc
.	.	.	.	.	.	.	.
.	.	that	.	.	.	.	.
2.v	C:min6	some	.	117.496	.	voice	2.C 2.e- 2.g
.	.	_	.	.	.	.	.
.	.	one	.	.	.	.	.
.	.	_	.	.	.	.	.
.	.	_	.	.	.	.	.
.	.	so	.	.	.	.	.
.	.	un	.	.	.	.	.
=32	=32	=32	=32	=32	=32	=32	=32
1.VI7	D:7	_	.	119.419	.	voice	1.D 1.f# 1.a 1.cc
.	.	for-	.	.	.	.	.
.	.	-get-	(D	.	.	.	.
.	.	-a-	.	.	.	.	.
.	.	-ble	d)	.	.	.	.
.	.	_	.	.	.	.	.
.	.	_	.	.	.	.	.
.	.	.	.	.	.	.	.
.	.	.	.	.	.	.	.
=33	=33	=33	=33	=33	=33	=33	=33
1.II7	G:9	.	.	123.265	newline	voice	1.G 1.b 1.dd 1.ff
.	.	thinks	.	.	.	.	.
.	.	_	.	.	.	.	.
.	.	that	.	.	.	.	.
.	.	I	.	.	.	.	.
.	.	_	.	.	.	.	.
.	.	am	.	.	.	.	.
.	.	_	.	.	.	.	.
.	.	_	.	.	.	.	.
.	.	.	.	.	.	.	.
=34	=34	=34	=34	=34	=34	=34	=34
2.V	C:sus4(b7,9)	.	.	127.331	.	voice	2.C 2.e 2.g
.	.	un-	.	.	.	.	.
.	.	.	.	.	.	.	.
2.V7	C:7	.	.	129.364	.	voice	2.C 2.e 2.g 2.b-
.	.	-for-	.	.	.	.	.
.	.	-get	.	.	.	.	.
.	.	_	.	.	.	.	.
.	.	a-	.	.	.	.	.
.	.	-ble	.	.	.	.	.
=35	=35	=35	=35	=35	=35	=35	=35
1.I7	F:maj7	_	.	131.397	.	voice	1.F 1.a 1.cc 1.ee
.	.	too	.	.	.	.	.
.	.	_	.	.	.	.	.
.	.	_	.	.	.	.	.
.	.	_	.	.	.	.	.
=36	=36	=36	=36	=36	=36	=36	=36
1.VI7	D:9	.	.	135.463	.	voice	1.D 1.f# 1.a 1.cc
.	.	Please	.	.	.	.	.
.	.	_	.	.	.	.	.
.	.	_	.	.	.	.	.
.	.	won't	.	.	.	.	.
.	.	you	.	.	.	.	.
=37	=37	=37	=37	=37	=37	=37	=37
1.II7	G:7	think	.	139.529	newline	voice	1.G 1.b 1.dd 1.ff
.	.	that	.	.	.	.	.
.	.	I	.	.	.	.	.
.	.	am	.	.	.	.	.
.	.	_	.	.	.	.	.
.	.	.	.	.	.	.	.
.	.	un-	.	.	.	.	.
.	.	-for-	.	.	.	.	.
=38	=38	=38	=38	=38	=38	=38	=38
1.V7	C:7	-get-	.	143.613	.	voice	1.C 1.e 1.g 1.b-
.	.	-a-	.	.	.	.	.
.	.	-ble	.	.	.	.	.
.	.	_	.	.	.	.	.
.	.	_	.	.	.	.	.
.	.	.	.	.	.	.	.
.	.	.	.	.	.	.	.
.	.	too	.	.	.	.	.
=39	=39	=39	=39	=39	=39	=39	=39
1.I	F:maj	_	.	147.696	.	voice	1.F 1.a 1.cc
=40	=40	=40	=40	=40	=40	=40	=40
1.I	F:maj	_	.	151.78	.	voice	1.F 1.a 1.cc
.	.	.	.	.	.	.	.
.	.	.	.	.	.	.	.
=41	=41	=41	=41	=41	=41	=41	=41
1r;	N	.	.	160.288	.	r	1r;
=42	=42	=42	=42	=42	=42	=42	=42
1r;	N	.	.	164.049	.	r	1r;
*-	*-	*-	*-	*-	*-	*-	*-
!!!BillboardChartDate: 1959/11/02
!!!BillboardPeak: 17
!!!BillboardWeeksOnChart: 13
!!!COC: Dinah Washington
!!!ENC: Nathaniel Condit-Schultz
!!!EST: Awating manual error checking and editing.
!!!OTL: Unforgettable
!!!RDF**harte: Chris Harte's syntax, used by MIREX
!!!RDF**harmony: **recip + pitch class of root + harmonic quality
!!!RDF**leadinstrument: original McGill primary instrumentation annotation
!!!RDF**phrase: newline = linebreak in original McGill transcription
!!!RDF**timestamp: McGill audio timestamp in seconds
!!!RDT: 2017/01/12/
!!!SampleActualRank: 29
!!!SampleID#: 0192
!!!SampleTargetRank: 30
!!!MBID: ea655441-164e-450c-b563-b745cdba4712
